public/icons/icon.svg

<?xml version="1.0" encoding="UTF-8" standalone="no"?>
<!-- Created with Inkscape (http://www.inkscape.org/) -->

<svg
   width="105.83333mm"
   height="105.83333mm"
   viewBox="0 0 105.83333 105.83333"
   version="1.1"
   id="svg1"
   xml:space="preserve"
   inkscape:version="1.3.2 (091e20e, 2023-11-25)"
   sodipodi:docname="icon.svg"
   inkscape:export-filename="icon-144x144.png"
   inkscape:export-xdpi="34.560001"
   inkscape:export-ydpi="34.560001"
   xmlns:inkscape="http://www.inkscape.org/namespaces/inkscape"
   xmlns:sodipodi="http://sodipodi.sourceforge.net/DTD/sodipodi-0.dtd"
   xmlns:xlink="http://www.w3.org/1999/xlink"
   xmlns="http://www.w3.org/2000/svg"
   xmlns:svg="http://www.w3.org/2000/svg"><sodipodi:namedview
     id="namedview1"
     pagecolor="#ffffff"
     bordercolor="#000000"
     borderopacity="0.25"
     inkscape:showpageshadow="2"
     inkscape:pageopacity="0.0"
     inkscape:pagecheckerboard="0"
     inkscape:deskcolor="#d1d1d1"
     inkscape:document-units="mm"
     inkscape:zoom="0.67038422"
     inkscape:cx="96.213482"
     inkscape:cy="120.82623"
     inkscape:window-width="1440"
     inkscape:window-height="847"
     inkscape:window-x="0"
     inkscape:window-y="25"
     inkscape:window-maximized="1"
     inkscape:current-layer="layer1"
     showguides="true" /><defs
     id="defs1"><inkscape:path-effect
       effect="copy_rotate"
       starting_point="0,0"
       origin="105.57,151.33"
       id="path-effect8"
       is_visible="true"
       lpeversion="1.2"
       lpesatellites=""
       method="normal"
       num_copies="7"
       starting_angle="0"
       rotation_angle="51.428571"
       gap="0"
       copies_to_360="true"
       mirror_copies="false"
       split_items="false"
       link_styles="false" /><linearGradient
       id="linearGradient3"
       inkscape:collect="always"><stop
         style="stop-color:#ffffff;stop-opacity:1;"
         offset="0"
         id="stop3" /><stop
         style="stop-color:#ffffff;stop-opacity:0;"
         offset="1"
         id="stop4" /></linearGradient><linearGradient
       id="linearGradient1"
       inkscape:collect="always"><stop
         style="stop-color:#6febf1;stop-opacity:1;"
         offset="0"
         id="stop1" /><stop
         style="stop-color:#1274b5;stop-opacity:1;"
         offset="1"
         id="stop2" /></linearGradient><style
       id="style1">
      .cls-1 {
        stroke-width: 0px;
      }
    </style><linearGradient
       inkscape:collect="always"
       xlink:href="#linearGradient1"
       id="linearGradient2"
       x1="400"
       y1="0"
       x2="0"
       y2="400"
       gradientUnits="userSpaceOnUse"
       gradientTransform="matrix(0.26458333,0,0,0.26458333,52.165961,95.583334)" /><linearGradient
       inkscape:collect="always"
       xlink:href="#linearGradient3"
       id="linearGradient14"
       x1="188.59"
       y1="-1.5107329"
       x2="-32.25663"
       y2="219.33589"
       gradientUnits="userSpaceOnUse"
       gradientTransform="matrix(0.39085404,0,0,0.39085404,74.530859,105.98755)" /></defs><g
     inkscape:label="Calque 1"
     inkscape:groupmode="layer"
     id="layer1"
     transform="translate(-52.165961,-95.583334)"><rect
       style="fill:url(#linearGradient2);fill-opacity:1;stroke:none;stroke-width:9.20224;stroke-linecap:round;stroke-linejoin:round;stroke-dasharray:none;stroke-opacity:1;paint-order:stroke markers fill"
       id="rect5"
       width="105.83333"
       height="105.83333"
       x="52.165962"
       y="95.583336"
       ry="0" /><path
       id="rect11"
       style="fill:url(#linearGradient14);fill-opacity:1;stroke:none;stroke-width:1.17256;stroke-linecap:round;stroke-linejoin:round;stroke-dasharray:none;stroke-opacity:1;paint-order:markers fill stroke"
       d="m 79.46769,118.19443 c -2.429506,0 -4.385063,1.95554 -4.385063,4.38507 v 2.09516 0.8653 h 0.01011 c -0.0016,0.0332 -0.01011,0.0646 -0.01011,0.0982 v 51.02166 c 0,1.17838 0.967368,2.14574 2.145747,2.14574 h 55.708496 c 1.17839,0 2.14575,-0.96736 2.14575,-2.14574 v -51.02166 c 0,-0.0335 -0.009,-0.065 -0.0101,-0.0982 h 0.0101 v -0.8653 -2.09516 c 0,-2.42953 -1.95599,-4.38507 -4.38548,-4.38507 z m 44.99493,2.33752 a 1.335465,1.335465 0 0 1 1.33525,1.33524 1.335465,1.335465 0 0 1 -1.33525,1.33567 1.335465,1.335465 0 0 1 -1.33566,-1.33567 1.335465,1.335465 0 0 1 1.33566,-1.33524 z m 3.73009,0 a 1.335465,1.335465 0 0 1 1.33566,1.33524 1.335465,1.335465 0 0 1 -1.33566,1.33567 1.335465,1.335465 0 0 1 -1.33525,-1.33567 1.335465,1.335465 0 0 1 1.33525,-1.33524 z m 3.7305,0 a 1.335465,1.335465 0 0 1 1.33525,1.33524 1.335465,1.335465 0 0 1 -1.33525,1.33567 1.335465,1.335465 0 0 1 -1.33566,-1.33567 1.335465,1.335465 0 0 1 1.33566,-1.33524 z m -55.598064,5.00801 h 0.488914 56.53713 0.48891 c 0.004,0.0339 0.0189,0.063 0.0189,0.0982 v 51.02166 c 0,0.52177 -0.40043,0.92262 -0.9222,0.92262 H 77.228374 c -0.52177,0 -0.922195,-0.40085 -0.922195,-0.92262 v -51.02166 c 0,-0.0352 0.01541,-0.0642 0.01897,-0.0982 z m 10.745172,17.0939 c -3.609471,0 -6.515214,2.90576 -6.515214,6.51522 v 6.99611 h 30.522216 c 3.60946,0 6.5152,-2.90576 6.5152,-6.51521 v -0.4809 c 0,-3.60946 -2.90574,-6.51522 -6.5152,-6.51522 z m 21.040632,17.44331 c -3.60948,0 -6.51522,2.90573 -6.51522,6.51522 v 0.48047 c 0,3.60947 2.90574,6.51522 6.51522,6.51522 h 21.49919 v -6.99569 c 0,-3.60949 -2.90574,-6.51522 -6.51521,-6.51522 z" /><ellipse
       style="opacity:1;fill:#b86e6e;fill-opacity:1;stroke:#ffffff;stroke-width:4.48699;stroke-linecap:round;stroke-linejoin:round;stroke-dasharray:none;stroke-opacity:1;paint-order:markers stroke fill"
       id="path9"
       cx="128.35872"
       cy="95.583336"
       rx="5.7985955e-07"
       ry="9.382324e-07" /></g></svg>

<?xml version="1.0" encoding="UTF-8" standalone="no"?>
<!-- Created with Inkscape (http://www.inkscape.org/) -->

<svg
   width="105.83333mm"
   height="105.83333mm"
   viewBox="0 0 105.83333 105.83333"
   version="1.1"
   id="svg1"
   xml:space="preserve"
   inkscape:version="1.3.2 (091e20e, 2023-11-25)"
   sodipodi:docname="icon.svg"
   inkscape:export-filename="icon-192x192.png"
   inkscape:export-xdpi="46.080002"
   inkscape:export-ydpi="46.080002"
   xmlns:inkscape="http://www.inkscape.org/namespaces/inkscape"
   xmlns:sodipodi="http://sodipodi.sourceforge.net/DTD/sodipodi-0.dtd"
   xmlns:xlink="http://www.w3.org/1999/xlink"
   xmlns="http://www.w3.org/2000/svg"
   xmlns:svg="http://www.w3.org/2000/svg"><sodipodi:namedview
   id="namedview1"
   pagecolor="#ffffff"
   bordercolor="#000000"
   borderopacity="0.25"
   inkscape:showpageshadow="2"
   inkscape:pageopacity="0.0"
   inkscape:pagecheckerboard="0"
   inkscape:deskcolor="#d1d1d1"
   inkscape:document-units="mm"
   inkscape:zoom="0.59000003"
   inkscape:cx="199.15253"
   inkscape:cy="199.99999"
   inkscape:window-width="1440"
   inkscape:window-height="847"
   inkscape:window-x="0"
   inkscape:window-y="25"
   inkscape:window-maximized="1"
   inkscape:current-layer="layer1" />
	<namedview
   id="namedview1"
   pagecolor="#ffffff"
   bordercolor="#000000"
   borderopacity="0.25"
   inkscape:showpageshadow="2"
   inkscape:pageopacity="0.0"
   inkscape:pagecheckerboard="0"
   inkscape:deskcolor="#d1d1d1"
   inkscape:document-units="mm"
   inkscape:zoom="0.9209631"
   inkscape:cx="200.87667"
   inkscape:cy="213.90651"
   inkscape:window-width="1440"
   inkscape:window-height="847"
   inkscape:window-x="0"
   inkscape:window-y="25"
   inkscape:window-maximized="1"
   inkscape:current-layer="layer1"
   showguides="true" />
	<defs
   id="defs1">
		<path-effect
   effect="copy_rotate"
   starting_point="0,0"
   origin="105.57,151.33"
   id="path-effect8"
   is_visible="true"
   lpeversion="1.2"
   lpesatellites=""
   method="normal"
   num_copies="7"
   starting_angle="0"
   rotation_angle="51.428571"
   gap="0"
   copies_to_360="true"
   mirror_copies="false"
   split_items="false"
   link_styles="false" />
		<linearGradient
   id="linearGradient3"
   inkscape:collect="always">
			<stop
   style="stop-color:#ffffff;stop-opacity:1;"
   offset="0"
   id="stop3" />
			<stop
   style="stop-color:#ffffff;stop-opacity:0;"
   offset="1"
   id="stop4" />
		</linearGradient>
		<linearGradient
   id="linearGradient1"
   inkscape:collect="always">
			<stop
   style="stop-color:#6febf1;stop-opacity:1;"
   offset="0"
   id="stop1" />
			<stop
   style="stop-color:#1274b5;stop-opacity:1;"
   offset="1"
   id="stop2" />
		</linearGradient>
		<style
   id="style1">
			.cls-1 {
			stroke-width: 0px;
			}
		</style>
		<linearGradient
   inkscape:collect="always"
   xlink:href="#linearGradient1"
   id="linearGradient2"
   x1="400"
   y1="0"
   x2="0"
   y2="400"
   gradientUnits="userSpaceOnUse"
   gradientTransform="matrix(0.26458333,0,0,0.26458333,52.165961,95.583334)" />
		<linearGradient
   inkscape:collect="always"
   xlink:href="#linearGradient3"
   id="linearGradient14"
   x1="188.59"
   y1="-1.5107329"
   x2="-32.25663"
   y2="219.33589"
   gradientUnits="userSpaceOnUse"
   gradientTransform="matrix(0.39085404,0,0,0.39085404,74.530859,105.98755)" />
	</defs>
	<g
   inkscape:label="Calque 1"
   inkscape:groupmode="layer"
   id="layer1"
   transform="translate(-52.165961,-95.583334)">
		<rect
   style="fill:url(#linearGradient2);fill-opacity:1;stroke:none;stroke-width:9.20224;stroke-linecap:round;stroke-linejoin:round;stroke-dasharray:none;stroke-opacity:1;paint-order:stroke markers fill"
   id="rect5"
   width="105.83333"
   height="105.83333"
   x="52.165962"
   y="95.583336"
   ry="0" />
		<path
   id="rect11"
   style="fill:url(#linearGradient14);fill-opacity:1;stroke:none;stroke-width:1.17256;stroke-linecap:round;stroke-linejoin:round;stroke-dasharray:none;stroke-opacity:1;paint-order:markers fill stroke"
   d="M 79.467654 118.19436 C 77.038152 118.19436 75.082392 120.15009 75.082392 122.57962 L 75.082392 124.67458 L 75.082392 125.4673 L 75.082392 125.54016 L 75.082392 178.21343 C 75.082475 179.04182 75.754166 179.71352 76.582558 179.7136 L 133.5827 179.78698 C 134.41109 179.7869 135.08277 179.11572 135.08286 178.28733 L 135.08286 125.5412 L 135.08286 125.54016 L 135.08286 124.67458 L 135.08286 122.57962 C 135.08286 120.15009 133.12657 118.19436 130.69708 118.19436 L 79.467654 118.19436 z M 124.46284 120.5322 C 125.19988 120.53257 125.79727 121.12996 125.79764 121.867 C 125.79785 122.60444 125.20028 123.20247 124.46284 123.20284 C 123.72499 123.20305 123.12679 122.60485 123.127 121.867 C 123.12737 121.12956 123.7254 120.53199 124.46284 120.5322 z M 128.19284 120.5322 C 128.93008 120.53228 129.52779 121.12976 129.52816 121.867 C 129.52837 122.60465 128.93049 123.20276 128.19284 123.20284 C 127.45521 123.20275 126.85732 122.60464 126.85753 121.867 C 126.8579 121.12976 127.45561 120.53229 128.19284 120.5322 z M 131.92337 120.5322 C 132.66061 120.53228 133.25832 121.12976 133.25869 121.867 C 133.2589 122.60465 132.66102 123.20276 131.92337 123.20284 C 131.18552 123.20305 130.58732 122.60485 130.58753 121.867 C 130.5879 121.12956 131.18593 120.53199 131.92337 120.5322 z M 78.082209 126.96746 L 132.08305 127.04085 L 132.08305 176.78716 L 78.082209 176.71378 L 78.082209 126.96746 z M 87.07029 142.63369 C 83.460827 142.63369 80.554926 145.5396 80.554926 149.14906 L 80.554926 156.14501 L 111.07709 156.14501 C 114.68655 156.14501 117.59246 153.23961 117.59246 149.63016 L 117.59246 149.14906 C 117.59246 145.5396 114.68655 142.63369 111.07709 142.63369 L 87.07029 142.63369 z M 108.11087 160.07707 C 104.50139 160.07707 101.5955 162.98295 101.5955 166.59244 L 101.5955 167.07303 C 101.5955 170.68248 104.50139 173.58788 108.11087 173.58788 L 129.61033 173.58788 L 129.61033 166.59244 C 129.61033 162.98295 126.70443 160.07707 123.09496 160.07707 L 108.11087 160.07707 z " />
	</g>
</svg>
